web/ui/src/components/theme/button/svgs/loading.svg

<svg height="16" viewBox="0 0 16 16" width="16" xmlns="http://www.w3.org/2000/svg"><g fill="none"><path d="m0 0h16v16h-16z" fill="#000" opacity="0"/><path d="m11.5551482 4.01193981c0 .40784361.3306225.73846618.7384661.73846618s.7384662-.33062257.7384662-.73846618c0-.4078436-.3306226-.73846617-.7384662-.73846617s-.7384661.33062257-.7384661.73846617zm1.6448518 3.99080424c-.0000398.32567653.1736838.62663106.4557213.7894808s.6295335.16284974.9115711 0c.2820375-.16284974.455761-.46380427.4557212-.7894808.0000398-.32567652-.1736837-.62663106-.4557212-.7894808-.2820376-.16284974-.6295336-.16284974-.9115711 0s-.4557611.46380428-.4557213.7894808zm-1.9448469 4.01080385c0 .5926159.48041 1.073026 1.0730259 1.073026.5926158 0 1.0730259-.4804101 1.0730259-1.073026 0-.3833552-.2045176-.7375901-.5365129-.9292677-.3319954-.1916776-.7410306-.1916776-1.073026 0s-.5365129.5459125-.5365129.9292677zm-4.17710555 1.7296052c-.00004643.4441203.23686228.8545243.62147405 1.0765979.38461176.2220736.8584864.2220736 1.24309816 0s.62152048-.6324776.62147405-1.0765979c.00004643-.4441204-.23686229-.8545243-.62147405-1.0765979s-.8584864-.2220736-1.24309816 0c-.38461177.2220736-.62152048.6324775-.62147405 1.0765979zm-4.09601991-1.7926476c0 .4946494.26389231.9517243.69227127 1.1990491.42837896.2473247.95616361.2473247 1.38454257 0 .42837896-.2473248.69227127-.7043997.69227127-1.1990491 0-.7646617-.61988081-1.3845425-1.38454255-1.3845425s-1.38454256.6198808-1.38454256 1.3845425zm3.89797966-9.48484471c0 .80932404.65608676 1.4654108 1.4654108 1.4654108.80932403 0 1.46541079-.65608676 1.46541079-1.4654108 0-.52354086-.2793057-1.00731257-.73270538-1.269083-.45339969-.26177043-1.01201114-.26177043-1.46541082 0s-.73270539.74554214-.73270539 1.269083zm-3.9788479 1.58084369c0 .52354085.27930571 1.00731256.73270539 1.26908299s1.01201113.26177043 1.46541081 0 .73270539-.74554214.73270539-1.26908299c0-.80932404-.65608676-1.4654108-1.46541079-1.4654108-.80932404 0-1.4654108.65608676-1.4654108 1.4654108zm-1.9011594 3.91015337c0 .49884334.26612974.95979359.69814074 1.20921526s.9642705.24942167 1.3962815 0 .69814074-.71037192.69814074-1.20921526c0-.77114497-.62513651-1.39628149-1.39628149-1.39628149-.77114497 0-1.39628149.62513652-1.39628149 1.39628149z" fill="#595959"/></g></svg>

<?xml version="1.0" encoding="UTF-8"?>
<svg width="16px" height="16px" viewBox="0 0 16 16" version="1.1" xmlns="http://www.w3.org/2000/svg" xmlns:xlink="http://www.w3.org/1999/xlink">
    <title>loading</title>
    <g id="页面-1" stroke="none" stroke-width="1" fill="none" fill-rule="evenodd">
        <g id="系统设计规范" transform="translate(-881.000000, -5253.000000)" fill-rule="nonzero">
            <g id="loading" transform="translate(881.000000, 5253.000000)">
                <rect id="矩形" fill="#000000" opacity="0" x="0" y="0" width="16" height="16"></rect>
                <path d="M11.5551482,4.01193981 C11.5551482,4.41978342 11.8857707,4.75040599 12.2936143,4.75040599 C12.7014579,4.75040599 13.0320805,4.41978342 13.0320805,4.01193981 C13.0320805,3.60409621 12.7014579,3.27347364 12.2936143,3.27347364 C11.8857707,3.27347364 11.5551482,3.60409621 11.5551482,4.01193981 L11.5551482,4.01193981 Z M13.2,8.00274405 C13.1999602,8.32842058 13.3736838,8.62937511 13.6557213,8.79222485 C13.9377588,8.95507459 14.2852548,8.95507459 14.5672924,8.79222485 C14.8493299,8.62937511 15.0230534,8.32842058 15.0230136,8.00274405 C15.0230534,7.67706753 14.8493299,7.37611299 14.5672924,7.21326325 C14.2852548,7.05041351 13.9377588,7.05041351 13.6557213,7.21326325 C13.3736838,7.37611299 13.1999602,7.67706753 13.2,8.00274405 Z M11.2551531,12.0135479 C11.2551531,12.6061638 11.7355631,13.0865739 12.328179,13.0865739 C12.9207948,13.0865739 13.4012049,12.6061638 13.4012049,12.0135479 C13.4012049,11.6301927 13.1966873,11.2759578 12.864692,11.0842802 C12.5326966,10.8926026 12.1236614,10.8926026 11.791666,11.0842802 C11.4596706,11.2759578 11.2551531,11.6301927 11.2551531,12.0135479 L11.2551531,12.0135479 Z M7.07804755,13.7431531 C7.07800112,14.1872734 7.31490983,14.5976774 7.6995216,14.819751 C8.08413336,15.0418246 8.558008,15.0418246 8.94261976,14.819751 C9.32723152,14.5976774 9.56414024,14.1872734 9.56409381,13.7431531 C9.56414024,13.2990327 9.32723152,12.8886288 8.94261976,12.6665552 C8.558008,12.4444816 8.08413336,12.4444816 7.6995216,12.6665552 C7.31490983,12.8886288 7.07800112,13.2990327 7.07804755,13.7431531 L7.07804755,13.7431531 Z M2.98202764,11.9505055 C2.98202764,12.4451549 3.24591995,12.9022298 3.67429891,13.1495546 C4.10267787,13.3968793 4.63046252,13.3968793 5.05884148,13.1495546 C5.48722044,12.9022298 5.75111275,12.4451549 5.75111275,11.9505055 C5.75111275,11.1858438 5.13123194,10.565963 4.3665702,10.565963 C3.60190846,10.565963 2.98202764,11.1858438 2.98202764,11.9505055 Z M6.8800073,2.46566079 C6.8800073,3.27498483 7.53609406,3.93107159 8.3454181,3.93107159 C9.15474213,3.93107159 9.81082889,3.27498483 9.81082889,2.46566079 C9.81082889,1.94211993 9.53152319,1.45834822 9.07812351,1.19657779 C8.62472382,0.934807356 8.06611237,0.934807356 7.61271269,1.19657779 C7.15931301,1.45834822 6.8800073,1.94211993 6.8800073,2.46566079 Z M2.9011594,4.04650448 C2.9011594,4.57004533 3.18046511,5.05381704 3.63386479,5.31558747 C4.08726447,5.5773579 4.64587592,5.5773579 5.0992756,5.31558747 C5.55267528,5.05381704 5.83198099,4.57004533 5.83198099,4.04650448 C5.83198099,3.23718044 5.17589423,2.58109368 4.3665702,2.58109368 C3.55724616,2.58109368 2.9011594,3.23718044 2.9011594,4.04650448 L2.9011594,4.04650448 Z M1,7.95665785 C1,8.45550119 1.26612974,8.91645144 1.69814074,9.16587311 C2.13015174,9.41529478 2.66241124,9.41529478 3.09442224,9.16587311 C3.52643324,8.91645144 3.79256298,8.45550119 3.79256298,7.95665785 C3.79256298,7.18551288 3.16742647,6.56037636 2.39628149,6.56037636 C1.62513652,6.56037636 1,7.18551288 1,7.95665785 L1,7.95665785 Z" id="形状" fill="#595959"></path>
            </g>
        </g>
    </g>
</svg>
